X: 212
U:~=!turn!
M:C
L:1/8
K:D
g | fdec dBcA | (B/2c/2d) (AF) BEEg | fdec dBcA | (B/2c/2d) (e/2f/2g) fddg |
fdec dBcA | (B/2c/2d) (AF) BEEF | DFEG FAGB | Adce fdd |]


